/* XPM */
static const char *bitcoin80[] = {
/* columns rows colors chars-per-pixel */
"80 80 229 2 ",
"   c #060606",
".  c #070907",
"X  c #080907",
"o  c #070C09",
"O  c #0A0C09",
"+  c #0B130C",
"@  c #0A160D",
"#  c #12140C",
"$  c #141A0E",
"%  c #0C1C10",
"&  c #131313",
"*  c #151B12",
"=  c #1A1B1A",
"-  c #191D10",
";  c #0F0E10",
":  c #0D2515",
">  c #0E2D19",
",  c #0E2917",
"<  c #152413",
"1  c #1E2312",
"2  c #192716",
"3  c #113A1F",
"4  c #17341A",
"5  c #0F331C",
"6  c #242B15",
"7  c #222718",
"8  c #24351A",
"9  c #2D351B",
"0  c #2A3A1B",
"q  c #30391B",
"w  c #113E21",
"e  c #282925",
"r  c #2B3527",
"t  c #363C28",
"y  c #383D34",
"u  c #38431E",
"i  c #22411F",
"p  c #164725",
"a  c #19562C",
"s  c #185D30",
"d  c #264924",
"f  c #3E4D23",
"g  c #384625",
"h  c #265227",
"j  c #375728",
"k  c #1C6A36",
"l  c #1E763C",
"z  c #286A34",
"x  c #366C32",
"c  c #24773B",
"v  c #347437",
"b  c #32632E",
"n  c #404D23",
"m  c #414C2A",
"M  c #445225",
"N  c #495A2B",
"B  c #43483A",
"V  c #495439",
"C  c #53642C",
"Z  c #467937",
"A  c #567635",
"S  c #536634",
"D  c #637735",
"F  c #1F7F40",
"G  c #434441",
"H  c #585956",
"J  c #4B5843",
"K  c #577746",
"L  c #6A774E",
"P  c #626360",
"I  c #4A883D",
"U  c #588C3E",
"Y  c #6C8438",
"T  c #658138",
"R  c #738B3C",
"E  c #64903F",
"W  c #79933F",
"Q  c #1F8644",
"!  c #228442",
"~  c #238E47",
"^  c #2B8C45",
"/  c #298A44",
"(  c #358A42",
")  c #279047",
"_  c #299147",
"`  c #249048",
"'  c #2C9248",
"]  c #339648",
"[  c #369849",
"{  c #3C9B49",
"}  c #399747",
"|  c #558D40",
" . c #439E4A",
".. c #489745",
"X. c #549B44",
"o. c #5F8556",
"O. c #7B9745",
"+. c #738B4B",
"@. c #46A14A",
"#. c #4CA34B",
"$. c #47A147",
"%. c #53A54B",
"&. c #5AA74C",
"*. c #55A94B",
"=. c #5DAD4C",
"-. c #58A347",
";. c #5FB04D",
":. c #62AD4D",
">. c #6BAE4E",
",. c #66A64B",
"<. c #77A94A",
"1. c #64B14D",
"2. c #6CB34D",
"3. c #72B54E",
"4. c #76B84F",
"5. c #7BB94F",
"6. c #7BB44E",
"7. c #65B153",
"8. c #6CB352",
"9. c #6CB55B",
"0. c #73B350",
"q. c #7AB650",
"w. c #7DBA50",
"e. c #77B85A",
"r. c #6DA450",
"t. c #7B8F69",
"y. c #5FAD62",
"u. c #75B964",
"i. c #7ABC6B",
"p. c #77B965",
"a. c #7FBE71",
"s. c #75AA6A",
"d. c #829D43",
"f. c #869C56",
"g. c #88A848",
"h. c #83BB4F",
"j. c #84B54E",
"k. c #95B54D",
"l. c #83BC51",
"z. c #8ABE52",
"x. c #84BE5D",
"c. c #94B959",
"v. c #8FAB5C",
"b. c #869C78",
"n. c #889771",
"m. c #81BF67",
"M. c #98A97E",
"N. c #81BF72",
"B. c #8EAB70",
"V. c #A5B77E",
"C. c #8DC153",
"Z. c #8AC156",
"A. c #94C353",
"S. c #9BC654",
"D. c #9EC855",
"F. c #99C65A",
"G. c #A2C553",
"H. c #A4CA55",
"J. c #A9CD56",
"K. c #A4CB5B",
"L. c #AACE5B",
"P. c #A2C25A",
"I. c #ACD05A",
"U. c #89C263",
"Y. c #9AC867",
"T. c #84C174",
"R. c #8BC47D",
"E. c #92C77B",
"W. c #99C978",
"Q. c #AACC62",
"!. c #A4CD6C",
"~. c #ABCE6B",
"^. c #A4C562",
"/. c #AED062",
"(. c #B3D26B",
"). c #B0D167",
"_. c #A3CB78",
"`. c #B3CF75",
"'. c #B9D67C",
"]. c #B8D678",
"[. c #A9D071",
"{. c #909587",
"}. c #96A88F",
"|. c #B2B6AB",
" X c #A2AC8B",
".X c #92C783",
"XX c #9BCC8B",
"oX c #96C987",
"OX c #9DCD90",
"+X c #A2CE84",
"@X c #A9D189",
"#X c #BAD884",
"$X c #A5CC97",
"%X c #AAD39C",
"&X c #A5D198",
"*X c #B5D79B",
"=X c #B6D9A8",
"-X c #BCDBB2",
";X c #C2DC8B",
":X c #C1DB86",
">X c #C5DE93",
",X c #C5DB98",
"<X c #CCE19C",
"1X c #C5D8AA",
"2X c #C3DFB6",
"3X c #CCE1A3",
"4X c #C8E0A8",
"5X c #D3E6AC",
"6X c #D0E4A7",
"7X c #C4E0BA",
"8X c #C9E2B7",
"9X c #D6E8B7",
"0X c #CED2C8",
"qX c #DDECC2",
"wX c #D6E7C9",
"eX c #DBECD3",
"rX c #DFEED9",
"tX c #CDE6C3",
"yX c #E2EECB",
"uX c #E0EEC3",
"iX c #E1EFD6",
"pX c #E4F1DC",
"aX c #ECF4DD",
"sX c #E7F1D1",
"dX c #EAF4E3",
"fX c #F5F9EE",
"gX c #F1F7E6",
"hX c #F9FCF4",
"jX c None",
/* pixels */
"jXjXjXjXjXjXjXjXjXjXjXjXjXjXjXjXjXjXjXjXjXjXjXjXjXjXjXjXjXjXjXjXjXjXjXjXjXjXjXjXjXjXjXjXjXjXjXjXjXjXjXjXjXjXjXjXjXjXjXjXjXjXjXjXjXjXjXjXjXjXjXjXjXjXjXjXjXjXjXjX",
"jXjXjXjXjXjXjXjXjXjXjXjXjXjXjXjXjXjXjXjXjXjXjXjXjXjXjXjXjXjXjXjXjXjXjXjXjXjXjXjXjXjXjXjXjXjXjXjXjXjXjXjXjXjXjXjXjXjXjXjXjXjXjXjXjXjXjXjXjXjXjXjXjXjXjXjXjXjXjXjX",
"jXjXjXjXjXjXjXjXjXjXjXjXjXjXjXjXjXjXjXjXjXjXjXjXjXjXjXjXjXjXjXjXjXjXjXjXjXjXjXjXjXjXjXjXjXjXjXjXjXjXjXjXjXjXjXjXjXjXjXjXjXjXjXjXjXjXjXjXjXjXjXjXjXjXjXjXjXjXjXjX",
"jXjXjXjXjXjXjXjXjXjXjXjXjXjXjXjXjXjXjXjXjXjXjXjXjXjXjXjXjXjXjXjXjXjXjXjXjXjXjXjXjXjXjXjXjXjXjXjXjXjXjXjXjXjXjXjXjXjXjXjXjXjXjXjXjXjXjXjXjXjXjXjXjXjXjXjXjXjXjXjX",
"jXjXjXjXjXjXjXjXjXjXjXjXjXjXjXjXjXjXjXjXjXjXjXjXjXjXjXjXjXjXjXjXjXjXjXjXjXjXjXjXjXjXjXjXjXjXjXjXjXjXjXjXjXjXjXjXjXjXjXjXjXjXjXjXjXjXjXjXjXjXjXjXjXjXjXjXjXjXjXjX",
"jXjXjXjXjXjXjXjXjXjXjXjXjXjXjXjXjXjXjXjXjXjXjXjXjXjXjXjXjXjXjXjXjX                            jXjXjXjXjXjXjXjXjXjXjXjXjXjXjXjXjXjXjXjXjXjXjXjXjXjXjXjXjXjXjXjXjX",
"jXjXjXjXjXjXjXjXjXjXjXjXjXjXjXjXjXjXjXjXjXjXjXjXjXjXjXjXjX                                            jXjXjXjXjXjXjXjXjXjXjXjXjXjXjXjXjXjXjXjXjXjXjXjXjXjXjXjXjX",
"jXjXjXjXjXjXjXjXjXjXjXjXjXjXjXjXjXjXjXjXjXjXjXjXjXjXjX                                                    jXjXjXjXjXjXjXjXjXjXjXjXjXjXjXjXjXjXjXjXjXjXjXjXjXjXjX",
"jXjXjXjXjXjXjXjXjXjXjXjXjXjXjXjXjXjXjXjXjXjXjXjX                    + 1 9 g n M V m u 9 7 # o                   jXjXjXjXjXjXjXjXjXjXjXjXjXjXjXjXjXjXjXjXjXjXjXjX",
"jXjXjXjXjXjXjXjXjXjXjXjXjXjXjXjXjXjXjXjXjXjXjX              + 4 j o.s.,.6.H.J./.yX9XQ.^.^.g.R C q $               jXjXjXjXjXjXjXjXjXjXjXjXjXjXjXjXjXjXjXjXjXjXjX",
"jXjXjXjXjXjXjXjXjXjXjXjXjXjXjXjXjXjXjXjXjX            & r b I -.T.dXpXu.1.l.A.S.>XaX>X].5X/.I.I.G.g.K r O             jXjXjXjXjXjXjXjXjXjXjXjXjXjXjXjXjXjXjXjXjX",
"jXjXjXjXjXjXjXjXjXjXjXjXjXjXjXjXjXjXjX            # V M.u.;.;.4.~.9X<XF.C.l.2.1._.gXqXK.Q.L.6XyX].H.F.*X}.d +             jXjXjXjXjXjXjXjXjXjXjXjXjXjXjXjXjXjXjX",
"jXjXjXjXjXjXjXjXjXjXjXjXjXjXjXjXjXjX          O g O.'.W.=.=.4.H.G.'.9XU.3.2.1.=.u.%XoX8.5.D.#XyX>XJ.J.:X6XA.U 0 o           jXjXjXjXjXjXjXjXjXjXjXjXjXjXjXjXjXjX",
"jXjXjXjXjXjXjXjXjXjXjXjXjXjXjXjXjX          r +.j.m.pXeX9.2.l.5.2.N.&Xe.5.l.l.3.=.=.=.=.=.1.3.Y.].J.J.J.J.J.H.h.Z <           jXjXjXjXjXjXjXjXjXjXjXjXjXjXjXjXjX",
"jXjXjXjXjXjXjXjXjXjXjXjXjXjXjXjX        o P 0XXX=.9.7X=X7.:.:.=.2.5.C.A.C.H.J.l.1.:.=.7.i.u.=.R.1XZ.H.A.h.A.H.J.C.r.J O         jXjXjXjXjXjXjXjXjXjXjXjXjXjXjXjX",
"jXjXjXjXjXjXjXjXjXjXjXjXjXjXjX        # L wXtXu.=.7.N.9.=.=.=.2.l.4.2.=.*.2.A.S.D.A.4.R.dXeXu.=.7.=.2.8.u.7.2.C.H.H.~.L #         jXjXjXjXjXjXjXjXjXjXjXjXjXjXjX",
"jXjXjXjXjXjXjXjXjXjXjXjXjXjX        e +.D.x.7.=.=.T.pX&X=.=.=.:.:.3.l.l.&.] { #.:.l.A.Y.yX8X9.=.=.=.=.9.wX&X=.w.H.J.L.6Xb.-         jXjXjXjXjXjXjXjXjXjXjXjXjXjX",
"jXjXjXjXjXjXjXjXjXjXjXjXjX        * }.E.1.=.=.=.=.9.-X=X=.=.=.:.l.H.J.J.S.>.l.>.~ _  .0.K.^.3.1.=.=.=.:.R.oX:.2.4.l.F.>X;XO.7         jXjXjXjXjXjXjXjXjXjXjXjXjX",
"jXjXjXjXjXjXjXjXjXjXjXjX        $ I 7.=.=.=.=.=.=.=.7.9.*.#. .z.J.J.J.J.J.J.I.W x { ' '  .l.H.S.3.@.#.=.=.=.=.9.&Xi.1.h.H.L.f.=         jXjXjXjXjXjXjXjXjXjXjXjX",
"jXjXjXjXjXjXjXjXjXjXjX        + Z =.=.=.1.3.3.1.=.=.=.2.w.>.q.J.H.S.H.J.J.J.G.M 8 j.z.l.q.A.J.J.A. ._ ] @.=.=.1.OXoX=.=.q.H.w.Z +         jXjXjXjXjXjXjXjXjXjXjX",
"jXjXjXjXjXjXjXjXjXjXjX      X b =.1.3.l.F.w.1.=.=.=.1.S.J.J.H.l.%.{ %.A.S.3.( + . z :.0.z.H.J.J.J.S.%.~ ~ ] %.=.:.=.=.=.=.l.4.2.A o       jXjXjXjXjXjXjXjXjXjXjX",
"jXjXjXjXjXjXjXjXjXjX        V -XW.S.H.!.8X9.=.=.*.%.l.J.J.z.@._ ~ ~ ~  .{ ] s     5 ~ ~ _  .q.S.J.J.,.] ~ ~ ] u.7XXX:.=.=.=.=.1.l.M         jXjXjXjXjXjXjXjXjXjX",
"jXjXjXjXjXjXjXjXjXjX      < $XhX<X<X*X9.R.1.4.:.%.z.J.H.q.] ~ ) ~ _ 2.z.l.A.N     + c @.&. ._  .8.O.C z.>.' $.XXhXpXu.7.:.=.=.=.2.g.6       jXjXjXjXjXjXjXjXjXjX",
"jXjXjXjXjXjXjXjXjX      o Z #X6X'.aXrXp.2.C.H.C.A.S.0.#._ ~ k I :.0.H.J.J.H.u       g S.J.H.:.c a + 4 %.z.q.} i.iXrXi.-X.X=.=.=.=.U.{.O       jXjXjXjXjXjXjXjXjX",
"jXjXjXjXjXjXjXjX        8 2.H.H.l.=XhX3XH.J.J.J.H. .~ ~ ~ @.N # M d.z.&.q.k.1       o Y H.W f +     p ) ] z.2.] y.i.9.wXXX=.=.=.:.9.%Xg         jXjXjXjXjXjXjXjX",
"jXjXjXjXjXjXjXjX      # E C.S.S.1._.sX'.H.H.S.A.>.) ~ ~ { C.U o   # 4 p | D X         6 n O         b #.)  .A.%.) %.:.i.7.=.=.u.7X=Xp.b.*       jXjXjXjXjXjXjXjX",
"jXjXjXjXjXjXjXjX      n G.w.e.~.A.K./.S.2.@.{ ] ~ ~ ' ] q.&.c +         $ 1                       + I ;.{ ~ %.q._ } =.=.=.=.=.R.fXfXXX7XH       jXjXjXjXjXjXjXjX",
"jXjXjXjXjXjXjX      + f.Z.=.oXyX/.J.A.:.' ~ ~ ~ _ &.:.>.%.` F @                                   h =.:.#.~ ~ :.] ] =.=.=.=.=.9.rXfXE.E.t.O       jXjXjXjXjXjXjX",
"jXjXjXjXjXjXjX      G tXe.=.+X5XL.C.1. .~ ~ ~ ' 0.z.#.%.~ ~ ~ >                                 : ( =.:.*.' ~ >.{ %.=.=.=.=.=.=.OXdX=X*Xe.y       jXjXjXjXjXjXjX",
"jXjXjXjXjXjX        t.sXU.=.l.K.5.:.=.[ ~ ~ } >.A. .~ ) ~ ~ ) s o                               a ~ [ #.*.' _ #.]  .=.=.=.=.=.=.7.%X%X7X%Xb.        jXjXjXjXjXjX",
"jXjXjXjXjXjX      # <.!.S.:.l.A.:.=.%.) ~ { A.J.:.~ ~ ~ ! ^ ! s +                               % > w h x z c ^ _ ] =.=.=.=.=.=.=.=.:.u.eX0X=       jXjXjXjXjXjX",
"jXjXjXjXjXjX      8 :.1.A.3.A.z.=.=.{ ' ' &.J.z.' ~ k 5 : < % o                                           O a ~ ~ ' { =.=.=.=.=.=.=.=.=.a.W.t       jXjXjXjXjXjX",
"jXjXjXjXjXjX      j 1.1.S.l.S.3.=.=.&.*.} 0.D. .~ ' v <                                                   d } ~ ~ :.{ %.=.=.=.=.=.=.=.=.=.C.C       jXjXjXjXjXjX",
"jXjXjXjXjX      o +.q.w.H.D.A.1.=.=.=.@._ l.z._ ~  .1.| 4                                             X d .. .~ ~ :.:.#.=.=.=.=.=.=.=.=.=.C.R X       jXjXjXjXjX",
"jXjXjXjXjX      * v.5.S.J.J.l.=.=.=.*.' ] A.q.~ ~ @.=. ./ a +                                       o h ,.@.#.~ ~  .2.@.*.%.=.=.=.=.=.=.=.3.g.#       jXjXjXjXjX",
"jXjXjXjXjX      e c.4.H.J.D.2.=.=.&.[ ~ { S.&.~ ] *.*.' ` ! 3                                     - x ' &.@.=.] ~ ' :. .*.@.=.=.=.=.=.=.=.1.<.1       jXjXjXjXjX",
"jXjXjXjXjX      t c.3.H.J.C.=.=.=.{ ~ ~ %.A.] ' *.=.%.^ k , o                                     1 A ^ { @.=.{ ' '  .] =.@.*.=.=.=.7.&Xi.=.3.9       jXjXjXjXjX",
"jXjXjXjXjX      g A.1.w.S.z.=.=.&.' ~ ~ >.>.' %.=.%.^ p o                                           O , p v -.{ ] ' ~ ) %.%.#.=.=.=.9.iX&X=.q.u       jXjXjXjXjX",
"jXjXjXjXjX      n z.=.=.l.C.=.=.#.) ~ ~ &.} { =.=.%.c :                                                 + h X.} } } _ _ { *.@.=.=.=.7.=X.X=.4.f       jXjXjXjXjX",
"jXjXjXjXjX      M l.7..XY.z.=.=.{ ~ ~ ~ ' ' *.=.*.=.} Q p O                                         o 3 c { =.] } @.] %.] *. .=.=.=.=.:.:.=.2.f       jXjXjXjXjX",
"jXjXjXjXjX      M 5.i.dX;X5.=.=.' ~ _ ] ~ ) { ] @.=.[ ~ ~ a                                     o q v ~ @.=.*.' { #.' 3. .@.{ *.=.=.=.=.=.=.2.f       jXjXjXjXjX",
"jXjXjXjXjX      f 4.w.qX,X2.=.%.) ~  .{ ~ ~ ~ ' *.=.] ` ! >                                     6 g.{ ) %.:.@.~  .@.~ 2.&.] ] *.=.=.=.=.=.=.l.n       jXjXjXjXjX",
"jXjXjXjXjX      u 3.5.(.Y.:.=.*.' _ %.] ~ ~ ~ @.=.=.' k ,                                       O j ! [ =.=.%._  .] ~ :.3.~ ' =.=.=.=.=.1.l.S.u       jXjXjXjXjX",
"jXjXjXjXjX      9 >.2.H.z.=.=.=.[ } *._ ~ ~ ] =.=.#.~ k 3 > : O                                   + a #.=.=.=.@.' ~ ~ %.q.~ [ =.=.=.=.=.q.J.G.9       jXjXjXjXjX",
"jXjXjXjXjX      1 <.3.H.l.=.=.=.#.@.*.' ~ ~  .=.=. .~ ` ~ ! k +                               @ p l { *.{ %.:.@.~ ~ ~ @.z.'  .=.=.=.=.=.4.J.k.1       jXjXjXjXjX",
"jXjXjXjXjX      # g.l.D.C.:.1.=.=.=.*._ ~ ~ [ =.=.*.@.c 3 : @                                 p _ @.*.} _ *.=.} ~ ] ]  .S. .#.=.=.=.2.1.w.J.g.#       jXjXjXjXjX",
"jXjXjXjXjX      X R l.C.D.2.4.=.=.=.=.] ~ ~ ~ #.=.;.| <                                   O . 4 {  .] ~ { *. .) ~ &.] &.A.@.=.=.=.=.z.5.C.I.R o       jXjXjXjXjX",
"jXjXjXjXjXjX      C >XE.A.h.z.1.=.=.=. .~ ~ ~ @.;.-.8                                   O : s p / } ' ] %.] ~ ~ %.:.} A.q.@.=.=.=.5.H.w.H.L.S       jXjXjXjXjXjX",
"jXjXjXjXjXjX      q ,X=X_.`.^.2.=.=.=.*.] ~ ~ [ *.h                                   5 c z {  . .] } *.#.~ ~ #.&. .l.S.%.*.=.=.2.D.D.+X3XQ.t       jXjXjXjXjXjX",
"jXjXjXjXjXjX      $ g.;XyXqX4X8.=.=.=.=.*.] ~ ) b O                               + d ..#.@.} ] } @.@.} ' ~ ~ ' @.A.H.:.@.=.=.9.@XL.H.5XgXB.*       jXjXjXjXjXjX",
"jXjXjXjXjXjX        +.'.W.-XdXN.=.=.=.=.=.%._ k @                               o x =.#.] ~ _  . .] ~ ~ ~ ~ ~ _ l.J.>.{ =.=.1.*XaX).H.#X9X+.        jXjXjXjXjXjX",
"jXjXjXjXjXjXjX      G wX_.9XhX7X7.=.=.=.=.=.( :                                 X Z @.~ ~ ' { %. .~ ~ ~ ~ ] &.q.H.2.] #.=.:.C.:X5XL.H./.1XB       jXjXjXjXjXjXjX",
"jXjXjXjXjXjXjX      & |.>X3XhXqXC.1.=.=.=.&.d                                   . z ) ~ #.l.w.:.] ~ ~ ~  .z.J.H.3. .2.:.N.@XL.J.K.D.H.:X|.&       jXjXjXjXjXjXjX",
"jXjXjXjXjXjXjXjX      V ~.(.:X].H.4.=.XXN.j .                                   o z } ] {  .' ~ ~ _ { >.S.H.q.%.&.l.2.u.iXaX).A.2.5.H.Q.V       jXjXjXjXjXjXjXjX",
"jXjXjXjXjXjXjXjX      + M.<XH.J.J.w.7.wXb.+                                     O +.A.&.~ ~ ` @.0.z.A.z.q.3.2.w.w.1.=.F.sXfX*Xe.i.l.J.O.#       jXjXjXjXjXjXjXjX",
"jXjXjXjXjXjXjXjX        B `.H.H.H.4.1.s.e                                       + | @.' ~ ` &.H.J.l. .{ :.w.q.2.=.:.l.L.<XgX%X2XdX_.`.m         jXjXjXjXjXjXjXjX",
"jXjXjXjXjXjXjXjXjX      O Y l.3.S.3.-.4                                         + l _  .&.q.S.S.2.' ~ ' [ %.1.2.w.A.>X4Xx.R.u.eXiX].b.;       jXjXjXjXjXjXjXjXjX",
"jXjXjXjXjXjXjXjXjXjX      6 <.1.w.z.j       .                                   @ c  .&.&.&.:.&.{ ] _ ' :.C.S.H.J.J.:XE.=.=.=.T.Y.k.7       jXjXjXjXjXjXjXjXjXjX",
"jXjXjXjXjXjXjXjXjXjX        f >.2.T O     O r .                                 % ! ~ ~ Q Q %.D.S.S.z.l.H.J.J.J.J.J.D.2.2.=.=.2.A.M         jXjXjXjXjXjXjXjXjXjX",
"jXjXjXjXjXjXjXjXjXjXjX      X K b.*       g J                                   % (  .@.%.&.l.H.H.J.J.J.J.H.J.J.H.H.H.D.h.=.1.A.D o       jXjXjXjXjXjXjXjXjXjXjX",
"jXjXjXjXjXjXjXjXjXjXjX        = e       1 E 2                                   2 6.A.S.H.H.H.w.4.D.J./.<X/.H.A.q.S.J.S.E.W.[.O.#         jXjXjXjXjXjXjXjXjXjXjX",
"jXjXjXjXjXjXjXjXjXjXjXjX              X D g.#                                   < -.1.1.2.2.2.=.1.S.J.].fX9Xl.:.4.H.H.z.8X5X Xe         jXjXjXjXjXjXjXjXjXjXjXjX",
"jXjXjXjXjXjXjXjXjXjXjXjXjX            9 P.Y                                     < -.2.q.w.w.3.1.1.l.S.Q.8X&X7.2.!.3X#XA.(.f.1         jXjXjXjXjXjXjXjXjXjXjXjXjX",
"jXjXjXjXjXjXjXjXjXjXjXjXjXjX          L uXK                                     * X.2.l.l.5.3.2.=.=.1.e.&XN.5.F.9XhX5XJ.O.1         jXjXjXjXjXjXjXjXjXjXjXjXjXjX",
"jXjXjXjXjXjXjXjXjXjXjXjXjXjXjX        = {.H                                     # X.=.=.7.9.=.:.1.=.1.@XhX5XH.L.3XuX`.D #         jXjXjXjXjXjXjXjXjXjXjXjXjXjXjX",
"jXjXjXjXjXjXjXjXjXjXjXjXjXjXjXjX        o #                                     + | 2.3.*X9XY.A.z.:.2._.wX*XD.J.L.k.M o         jXjXjXjXjXjXjXjXjXjXjXjXjXjXjXjX",
"jXjXjXjXjXjXjXjXjXjXjXjXjXjXjXjXjX                                              O O.H.H.(.:X].F.2.=.=.u..XC.H.G.Y 6           jXjXjXjXjXjXjXjXjXjXjXjXjXjXjXjXjX",
"jXjXjXjXjXjXjXjXjXjXjXjXjXjXjXjXjXjX                                      o     . Y J.S.'.aXiXp.=.=.9.tXqXK.d.g O           jXjXjXjXjXjXjXjXjXjXjXjXjXjXjXjXjXjX",
"jXjXjXjXjXjXjXjXjXjXjXjXjXjXjXjXjXjXjX                                    r &     8 0.5.+XyX+X2.w.A.K.,Xf.n #             jXjXjXjXjXjXjXjXjXjXjXjXjXjXjXjXjXjXjX",
"jXjXjXjXjXjXjXjXjXjXjXjXjXjXjXjXjXjXjXjXjX                                V 7     . K !.K./.K.H.G.g.D q O             jXjXjXjXjXjXjXjXjXjXjXjXjXjXjXjXjXjXjXjXjX",
"jXjXjXjXjXjXjXjXjXjXjXjXjXjXjXjXjXjXjXjXjXjXjX                            N C       y 1X~.V.n.S q $               jXjXjXjXjXjXjXjXjXjXjXjXjXjXjXjXjXjXjXjXjXjXjX",
"jXjXjXjXjXjXjXjXjXjXjXjXjXjXjXjXjXjXjXjXjXjXjXjX                          1 q X     o r 7 * O                   jXjXjXjXjXjXjXjXjXjXjXjXjXjXjXjXjXjXjXjXjXjXjXjX",
"jXjXjXjXjXjXjXjXjXjXjXjXjXjXjXjXjXjXjXjXjXjXjXjXjXjXjX                                                    jXjXjXjXjXjXjXjXjXjXjXjXjXjXjXjXjXjXjXjXjXjXjXjXjXjXjX",
"jXjXjXjXjXjXjXjXjXjXjXjXjXjXjXjXjXjXjXjXjXjXjXjXjXjXjXjXjX                                            jXjXjXjXjXjXjXjXjXjXjXjXjXjXjXjXjXjXjXjXjXjXjXjXjXjXjXjXjX",
"jXjXjXjXjXjXjXjXjXjXjXjXjXjXjXjXjXjXjXjXjXjXjXjXjXjXjXjXjXjXjXjXjX                            jXjXjXjXjXjXjXjXjXjXjXjXjXjXjXjXjXjXjXjXjXjXjXjXjXjXjXjXjXjXjXjXjX",
"jXjXjXjXjXjXjXjXjXjXjXjXjXjXjXjXjXjXjXjXjXjXjXjXjXjXjXjXjXjXjXjXjXjXjXjXjXjXjXjXjXjXjXjXjXjXjXjXjXjXjXjXjXjXjXjXjXjXjXjXjXjXjXjXjXjXjXjXjXjXjXjXjXjXjXjXjXjXjXjX",
"jXjXjXjXjXjXjXjXjXjXjXjXjXjXjXjXjXjXjXjXjXjXjXjXjXjXjXjXjXjXjXjXjXjXjXjXjXjXjXjXjXjXjXjXjXjXjXjXjXjXjXjXjXjXjXjXjXjXjXjXjXjXjXjXjXjXjXjXjXjXjXjXjXjXjXjXjXjXjXjX",
"jXjXjXjXjXjXjXjXjXjXjXjXjXjXjXjXjXjXjXjXjXjXjXjXjXjXjXjXjXjXjXjXjXjXjXjXjXjXjXjXjXjXjXjXjXjXjXjXjXjXjXjXjXjXjXjXjXjXjXjXjXjXjXjXjXjXjXjXjXjXjXjXjXjXjXjXjXjXjXjX",
"jXjXjXjXjXjXjXjXjXjXjXjXjXjXjXjXjXjXjXjXjXjXjXjXjXjXjXjXjXjXjXjXjXjXjXjXjXjXjXjXjXjXjXjXjXjXjXjXjXjXjXjXjXjXjXjXjXjXjXjXjXjXjXjXjXjXjXjXjXjXjXjXjXjXjXjXjXjXjXjX",
"jXjXjXjXjXjXjXjXjXjXjXjXjXjXjXjXjXjXjXjXjXjXjXjXjXjXjXjXjXjXjXjXjXjXjXjXjXjXjXjXjXjXjXjXjXjXjXjXjXjXjXjXjXjXjXjXjXjXjXjXjXjXjXjXjXjXjXjXjXjXjXjXjXjXjXjXjXjXjXjX"
};
