/* XPM */
static const char *bitcoin32[] = {
/* columns rows colors chars-per-pixel */
"32 32 189 2 ",
"   c #050505",
".  c #060806",
"X  c #090907",
"o  c #070A08",
"O  c #0B0C0A",
"+  c #0D120C",
"@  c #0B190F",
"#  c #12140D",
"$  c #13180D",
"%  c #1A1D0F",
"&  c #0C1F12",
"*  c #131511",
"=  c #141B12",
"-  c #0D2816",
";  c #142012",
":  c #1B2312",
">  c #112A16",
",  c #1B2A16",
"<  c #102D18",
"1  c #15381D",
"2  c #212515",
"3  c #242B16",
"4  c #242C1A",
"5  c #22261B",
"6  c #233118",
"7  c #223B1D",
"8  c #2C3A1C",
"9  c #1F3F20",
"0  c #272C23",
"q  c #32332F",
"w  c #35421E",
"e  c #1B4623",
"r  c #174926",
"t  c #16522A",
"y  c #1A582D",
"u  c #2F4023",
"i  c #234723",
"p  c #354322",
"a  c #3B4623",
"s  c #36442C",
"d  c #3C4629",
"f  c #3E482E",
"g  c #21552A",
"h  c #285A2C",
"j  c #295B2C",
"k  c #3D5927",
"l  c #3D5928",
"z  c #345729",
"x  c #3C4836",
"c  c #3C6A2F",
"v  c #2C6330",
"b  c #326E35",
"n  c #2E7F3D",
"m  c #257C3D",
"M  c #41492E",
"N  c #465C2C",
"B  c #444B36",
"V  c #495238",
"C  c #495E32",
"Z  c #44652D",
"A  c #48662D",
"S  c #50602A",
"D  c #4B6830",
"F  c #46683E",
"G  c #576437",
"H  c #447736",
"J  c #5E7037",
"K  c #596147",
"L  c #517F44",
"P  c #6D7952",
"I  c #3C823C",
"U  c #418B3F",
"Y  c #43853E",
"T  c #51843C",
"R  c #63883C",
"E  c #358841",
"W  c #3B8A40",
"Q  c #279047",
"!  c #299047",
"~  c #2B9248",
"^  c #3B9445",
"/  c #349649",
"(  c #359849",
")  c #3C9B49",
"_  c #598543",
"`  c #489B47",
"'  c #449D4A",
"]  c #4B9C48",
"[  c #419544",
"{  c #65884F",
"}  c #6B8A46",
"|  c #778E41",
" . c #639B44",
".. c #749F45",
"X. c #688A56",
"o. c #758F54",
"O. c #799157",
"+. c #7E935B",
"@. c #45A04B",
"#. c #4CA24B",
"$. c #52A54C",
"%. c #54A94B",
"&. c #5CAD4B",
"*. c #5EAE54",
"=. c #62AC4E",
"-. c #6BAF4F",
";. c #6DA74D",
":. c #77A94D",
">. c #65B14D",
",. c #6CB24E",
"<. c #72B54E",
"1. c #74B84E",
"2. c #7CB94F",
"3. c #61AF55",
"4. c #64A550",
"5. c #78AC54",
"6. c #65B251",
"7. c #6BB353",
"8. c #6DB55D",
"9. c #73B451",
"0. c #7DBA51",
"q. c #71B75B",
"w. c #75B95D",
"e. c #7ABA5C",
"r. c #75BA54",
"t. c #77926B",
"y. c #7B9364",
"u. c #70B760",
"i. c #71B960",
"p. c #7BBC64",
"a. c #7CBE6A",
"s. c #83BD4F",
"d. c #85B750",
"f. c #85BD52",
"g. c #8CBE52",
"h. c #84BD5A",
"j. c #8BB556",
"k. c #89996E",
"l. c #8D9B70",
"z. c #83AE67",
"x. c #9AB662",
"c. c #89B473",
"v. c #9CBF75",
"b. c #A2BF67",
"n. c #A8BE7A",
"m. c #8DC353",
"M. c #8CC158",
"N. c #92C254",
"B. c #92C35A",
"V. c #9AC55C",
"C. c #9DC755",
"Z. c #A2CA56",
"A. c #A3CD5E",
"S. c #84C163",
"D. c #8CC36A",
"F. c #87C165",
"G. c #90C666",
"H. c #9FCA67",
"J. c #9DCA6A",
"K. c #9DC46B",
"L. c #8CC477",
"P. c #9FCB70",
"I. c #90C87A",
"U. c #97C87A",
"Y. c #A3CC65",
"T. c #B6D66E",
"R. c #A7CF74",
"E. c #A8CD74",
"W. c #A7C27C",
"Q. c #ABD17C",
"!. c #ADD276",
"~. c #B5D375",
"^. c #8EC586",
"/. c #90C783",
"(. c #95C988",
"). c #9BCC89",
"_. c #9EC985",
"`. c #A4CF82",
"'. c #ABD284",
"]. c #B8D986",
"[. c #B6D486",
"{. c #B8D797",
"}. c #B0D89D",
"|. c #BDDD9F",
" X c #BDDC91",
".X c #B6D8A3",
"XX c #C6E0A9",
"oX c #D3E8BB",
"OX c None",
/* pixels */
"OXOXOXOXOXOXOXOXOXOXOXOXOXOXOXOXOXOXOXOXOXOXOXOXOXOXOXOXOXOXOXOX",
"OXOXOXOXOXOXOXOXOXOXOXOXOXOXOXOXOXOXOXOXOXOXOXOXOXOXOXOXOXOXOXOX",
"OXOXOXOXOXOXOXOXOXOXOXOX                OXOXOXOXOXOXOXOXOXOXOXOX",
"OXOXOXOXOXOXOXOXOXOX  X ; s N J P G a : X   OXOXOXOXOXOXOXOXOXOX",
"OXOXOXOXOXOXOXOX  O f L ;.{.F.f..X!.~.b.O.s O   OXOXOXOXOXOXOXOX",
"OXOXOXOXOXOXOX  q { _.a.1.D.h.0.q.w.D.R.A.N.R 4   OXOXOXOXOXOXOX",
"OXOXOXOXOXOX  s z.i./.8.>.0.<.,.,.U.L.6.w.F.m.x.M   OXOXOXOXOXOX",
"OXOXOXOXOX  7 4.,.&.q.7.0.C.Z...Y 7.N.<.#.3.p.h.j.u   OXOXOXOXOX",
"OXOXOXOX  0 c.G.p.&.0.g.%.#.9.z 9 %.0.g.] ) /.u.>. .3   OXOXOXOX",
"OXOXOXOXX }  X.XB.g.=.[ b  .d.w + R T i H &.^.(.u.6.X.O OXOXOXOX",
"OXOXOX  p h.H.R.7.$.( #.7 $ 7 $   % # + U #.] *.6.(..Xx   OXOXOX",
"OXOXOXO y.F.J.&.! #.$./ t             e ] ( [ %.&.a..Xt.O OXOXOX",
"OXOX  : 5.f.<.@.$.,.m r <             @ > g ~ #.&.&.7.c.5   OXOX",
"OXOX  p f.N.>.#.=.' [ e o               , I / %.&.&.&.,.w   OXOX",
"OXOX  C N.f.%./ &.@.` y +             + v ` / ) $.&.8.p.k   OXOX",
"OXOX  D S.0.@.Q ' %.W -               X > I ) ( @.%.8.a.Z   OXOX",
"OXOX  A '.e.) / ! @.) t .             6 E #.) ` ` $.&.>.A   OXOX",
"OXOX  l m.,.@.) ! $.^ t @             1 ^ %./ ) #.%.&.f.S   OXOX",
"OXOX  p B.1.&.@.Q %.Y - O           ; n ) @.( $.=.&.<.N.a   OXOX",
"OXOX  2 W.'.7.%./ E ,           + g n ^ ) ~ #.9.&.w.Y.W.2   OXOX",
"OXOXOXX k.oXL.&.#.1             i ) ` ) ! ` 9.=.7.Q.T.l.X OXOXOX",
"OXOXOX  B ].Y.p.F .             z ) ' #.=.f.,.w.XXJ.V.M   OXOXOX",
"OXOXOXOXO } m._ *               h ' =.-.` ,.0.P.).}.+.O OXOXOXOX",
"OXOXOXOX  , _ : = +             h @.-.f.f.C.Z.V.7.:.3   OXOXOXOX",
"OXOXOXOXOX  * $ N O             H 0.0.f.~.Q.m.Y.v.d   OXOXOXOXOX",
"OXOXOXOXOXOX  0 K               c r.r.>.I.`.].n.d   OXOXOXOXOXOX",
"OXOXOXOXOXOXOXX O               A J.'.,.I.E.| 4   OXOXOXOXOXOXOX",
"OXOXOXOXOXOXOXOX            # * 8 K.'.:.o.d O   OXOXOXOXOXOXOXOX",
"OXOXOXOXOXOXOXOXOXOX        + : O V M 2 X   OXOXOXOXOXOXOXOXOXOX",
"OXOXOXOXOXOXOXOXOXOXOXOX                OXOXOXOXOXOXOXOXOXOXOXOX",
"OXOXOXOXOXOXOXOXOXOXOXOXOXOXOXOXOXOXOXOXOXOXOXOXOXOXOXOXOXOXOXOX",
"OXOXOXOXOXOXOXOXOXOXOXOXOXOXOXOXOXOXOXOXOXOXOXOXOXOXOXOXOXOXOXOX"
};
